X: 134005
Q: "Irish Reel."
M: C
L: 1/8
K: Ador
(gf) |\
eAAf edBd | eAAf g2(fg) |\
eAAf edBd | dBGB d2(cd) |\
eAAf edBd | eAAf g2(fg) |\
abaf gfge | dBGB d2 |]
(cB) |\
(cd) |\
edef gagf | gagf gagf |\
edeg abag | abag abag |\
edef gagf | gagf gagf |\
edeg abag | abag a2 |]
(gf) |\
edef gedB | Agfg e2(dc) |\
agfa gfge | dBGB d2 |]


